X:13
T:Quand Biron voulut danser
A:Normandie 
O:France
M:2/4
L:1/8
Q:1/4=120
K:F
DG|^FDGA|B z cB|AGA^F|G z DG|^FDGA|
B z cB|AGA^F|G z Bd|B2BB|B2Bd|B2BB|
B2BB|B2c2|d z/2 D/2 GG|G2 BA|G2 z2||
W:Quand Biron voulut danser
W:Ses souliers fit apporter
W:
W:Refrain :
W:Ses souliers tout ronds
W:Vous danserez, Biron
W:
W:Quand Biron voulut danser
W:Sa chemise fit apporter
W:Sa chemise de Venise
W:
W:Quand Biron voulut danser
W:Son pourpoint fit apporter
W:Son pourpoint fait au point
W:Sa chemise de Venise
W:
W:Quand Biron voulut danser
W:Son gilet fit apporter
W:Songilet bien fait
W:Sa chemise de Venise
W:Son pourpoint fait au point
